docs/img/he/he-dtree.svg

<svg width="1280" height="720" xmlns="http://www.w3.org/2000/svg" xmlns:xlink="http://www.w3.org/1999/xlink" overflow="hidden"><g><rect x="0" y="0" width="1280" height="720" fill="#FFFFFF"/><path d="M42.5001 275.667C42.5001 271.156 46.1565 267.5 50.6669 267.5L227.333 267.5C231.844 267.5 235.5 271.156 235.5 275.667L235.5 308.333C235.5 312.844 231.844 316.5 227.333 316.5L50.6669 316.5C46.1565 316.5 42.5001 312.844 42.5001 308.333Z" stroke="#042433" stroke-width="3" stroke-miterlimit="8" fill="#112D4E" fill-rule="evenodd"/><text fill="#FFFFFF" font-family="Cambria Math,Cambria Math_MSFontService,sans-serif" font-weight="400" font-size="27" transform="translate(73.1352 302)">Susceptible</text><path d="M289.5 148.667C289.5 144.156 293.156 140.5 297.667 140.5L473.333 140.5C477.844 140.5 481.5 144.156 481.5 148.667L481.5 181.333C481.5 185.844 477.844 189.5 473.333 189.5L297.667 189.5C293.156 189.5 289.5 185.844 289.5 181.333Z" stroke="#042433" stroke-width="3" stroke-miterlimit="8" fill="#3F72AF" fill-rule="evenodd"/><text fill="#FFFFFF" font-family="Cambria Math,Cambria Math_MSFontService,sans-serif" font-weight="400" font-size="27" transform="translate(323.422 174)">No vaccine</text><path d="M289.5 403.667C289.5 399.156 293.156 395.5 297.667 395.5L473.333 395.5C477.844 395.5 481.5 399.156 481.5 403.667L481.5 436.333C481.5 440.844 477.844 444.5 473.333 444.5L297.667 444.5C293.156 444.5 289.5 440.844 289.5 436.333Z" stroke="#042433" stroke-width="3" stroke-miterlimit="8" fill="#3F72AF" fill-rule="evenodd"/><text fill="#FFFFFF" font-family="Cambria Math,Cambria Math_MSFontService,sans-serif" font-weight="400" font-size="27" transform="translate(341.665 430)">Vaccine</text><path d="M530.5 76.8336C530.5 72.2311 534.231 68.5001 538.834 68.5001L715.167 68.5001C719.769 68.5001 723.5 72.2311 723.5 76.8336L723.5 110.166C723.5 114.769 719.769 118.5 715.167 118.5L538.834 118.5C534.231 118.5 530.5 114.769 530.5 110.166Z" stroke="#042433" stroke-width="3" stroke-miterlimit="8" fill="#DBE2EF" fill-rule="evenodd"/><text font-family="Cambria Math,Cambria Math_MSFontService,sans-serif" font-weight="400" font-size="27" transform="translate(575.549 103)">Infection</text><path d="M530.5 220.834C530.5 216.231 534.231 212.5 538.834 212.5L715.167 212.5C719.769 212.5 723.5 216.231 723.5 220.834L723.5 254.166C723.5 258.769 719.769 262.5 715.167 262.5L538.834 262.5C534.231 262.5 530.5 258.769 530.5 254.166Z" stroke="#042433" stroke-width="3" stroke-miterlimit="8" fill="#F9F7F7" fill-rule="evenodd"/><text font-family="Cambria Math,Cambria Math_MSFontService,sans-serif" font-weight="400" font-size="27" transform="translate(557.132 247)">No infection</text><path d="M530.5 338.667C530.5 334.156 534.156 330.5 538.667 330.5L715.333 330.5C719.844 330.5 723.5 334.156 723.5 338.667L723.5 371.333C723.5 375.844 719.844 379.5 715.333 379.5L538.667 379.5C534.156 379.5 530.5 375.844 530.5 371.333Z" stroke="#042433" stroke-width="3" stroke-miterlimit="8" fill="#DBE2EF" fill-rule="evenodd"/><text font-family="Cambria Math,Cambria Math_MSFontService,sans-serif" font-weight="400" font-size="27" transform="translate(564.699 364)">Vaccinated</text><path d="M530.5 482.667C530.5 478.156 534.156 474.5 538.667 474.5L715.333 474.5C719.844 474.5 723.5 478.156 723.5 482.667L723.5 515.333C723.5 519.844 719.844 523.5 715.333 523.5L538.667 523.5C534.156 523.5 530.5 519.844 530.5 515.333Z" stroke="#042433" stroke-width="3" stroke-miterlimit="8" fill="#DBE2EF" fill-rule="evenodd"/><text font-family="Cambria Math,Cambria Math_MSFontService,sans-serif" font-weight="400" font-size="27" transform="translate(541.955 508)">Not vaccinated</text><path d="M1.84164-0.779971 51.8526 117.304 48.1693 118.864-1.84164 0.779971ZM54.7559 113.903 53.9108 127.292 43.706 118.582Z" transform="matrix(1 0 0 -1 235 291.292)"/><path d="M236.843 291.224 286.875 410.084 283.188 411.636 233.157 292.776ZM289.785 406.689 288.911 420.077 278.725 411.345Z"/><path d="M1.65278-1.1262 44.5992 61.9008 41.2936 64.1532-1.65278 1.1262ZM46.7786 57.9956 48.5774 71.2909 36.8619 64.7528Z" transform="matrix(1 0 0 -1 481 164.291)"/><path d="M482.663 162.889 525.684 227.262 522.358 229.485 479.337 165.111ZM527.898 223.377 529.577 236.688 517.921 230.045Z"/><path d="M1.60512-1.19314 44.2168 56.132 41.0066 58.5183-1.60512 1.19314ZM46.2339 52.1406 48.5774 65.3508 36.6032 59.2995Z" transform="matrix(1 0 0 -1 481 419.351)"/><path d="M482.701 418.949 526.023 489.069 522.62 491.172 479.299 421.051ZM528.375 485.266 529.577 498.628 518.166 491.573Z"/><path d="M782.5 299.667C782.5 295.156 786.156 291.5 790.667 291.5L967.333 291.5C971.844 291.5 975.5 295.156 975.5 299.667L975.5 332.333C975.5 336.844 971.844 340.5 967.333 340.5L790.667 340.5C786.156 340.5 782.5 336.844 782.5 332.333Z" stroke="#042433" stroke-width="3" stroke-miterlimit="8" fill="#F9F7F7" fill-rule="evenodd"/><text font-family="Cambria Math,Cambria Math_MSFontService,sans-serif" font-weight="400" font-size="27" transform="translate(809.311 326)">No infection</text><path d="M782.5 373.667C782.5 369.156 786.156 365.5 790.667 365.5L967.333 365.5C971.844 365.5 975.5 369.156 975.5 373.667L975.5 406.333C975.5 410.844 971.844 414.5 967.333 414.5L790.667 414.5C786.156 414.5 782.5 410.844 782.5 406.333Z" stroke="#042433" stroke-width="3" stroke-miterlimit="8" fill="#DBE2EF" fill-rule="evenodd"/><text font-family="Cambria Math,Cambria Math_MSFontService,sans-serif" font-weight="400" font-size="27" transform="translate(827.727 399)">Infection</text><path d="M1040.5 489.667C1040.5 485.156 1044.16 481.5 1048.67 481.5L1225.33 481.5C1229.84 481.5 1233.5 485.156 1233.5 489.667L1233.5 522.333C1233.5 526.844 1229.84 530.5 1225.33 530.5L1048.67 530.5C1044.16 530.5 1040.5 526.844 1040.5 522.333Z" stroke="#042433" stroke-width="3" stroke-miterlimit="8" fill="#F9F7F7" fill-rule="evenodd"/><text font-family="Cambria Math,Cambria Math_MSFontService,sans-serif" font-weight="400" font-size="27" transform="translate(1076.96 515)">Recovered</text><path d="M1040.5 563.667C1040.5 559.156 1044.16 555.5 1048.67 555.5L1225.33 555.5C1229.84 555.5 1233.5 559.156 1233.5 563.667L1233.5 596.333C1233.5 600.844 1229.84 604.5 1225.33 604.5L1048.67 604.5C1044.16 604.5 1040.5 600.844 1040.5 596.333Z" stroke="#042433" stroke-width="3" stroke-miterlimit="8" fill="#F9F7F7" fill-rule="evenodd"/><text font-family="Cambria Math,Cambria Math_MSFontService,sans-serif" font-weight="400" font-size="27" transform="translate(1102.82 589)">Death</text><path d="M1.03838-1.70932 51.9146 29.197 49.8378 32.6157-1.03838 1.70932ZM52.282 24.74 59.4228 36.0983 46.0517 34.9959Z" transform="matrix(1 0 0 -1 723 93.0983)"/><path d="M724.069 91.31 775.042 123.565 772.903 126.945 721.931 94.69ZM775.491 119.116 782.423 130.603 769.074 129.256Z"/><path d="M1.09153-1.67588 52.1349 31.5695 49.9518 34.9212-1.09153 1.67588ZM52.6421 27.1262 59.4228 38.703 46.0929 37.1815Z" transform="matrix(1 0 0 -1 723 354.703)"/><path d="M724.015 352.277 774.821 382.2 772.791 385.646 721.985 355.723ZM775.128 377.738 782.423 388.998 769.038 388.078Z"/><path d="M0.942264-1.76413 51.5444 25.2638 49.6599 28.792-0.942264 1.76413ZM51.6648 20.7933 59.4228 31.7392 46.0112 31.378Z" transform="matrix(1 0 0 -1 723 498.739)"/><path d="M724.154 496.366 775.408 532.56 773.1 535.827 721.846 499.634ZM776.081 528.138 782.423 539.962 769.159 537.941Z"/><path d="M0.93566-1.76764 57.4308 28.1369 55.5595 31.6721-0.93566 1.76764ZM57.5345 23.6659 65.3333 34.5828 51.9205 34.2717Z" transform="matrix(1 0 0 -1 975 389.583)"/><path d="M976.027 387.284 1032.78 421.265 1030.73 424.697 973.973 390.716ZM1033.12 416.806 1040.33 428.118 1026.96 427.101Z"/><path d="M0.940014-1.76533 57.4467 28.3238 55.5667 31.8545-0.940014 1.76533ZM57.5614 23.8531 65.3333 34.7892 51.9213 34.4451Z" transform="matrix(1 0 0 -1 975 539.789)"/><path d="M976.023 538.282 1032.77 572.076 1030.72 575.513 973.977 541.718ZM1033.09 567.616 1040.33 578.912 1026.95 577.926Z"/><path d="M782.5 450.667C782.5 446.156 786.156 442.5 790.667 442.5L967.333 442.5C971.844 442.5 975.5 446.156 975.5 450.667L975.5 483.333C975.5 487.844 971.844 491.5 967.333 491.5L790.667 491.5C786.156 491.5 782.5 487.844 782.5 483.333Z" stroke="#042433" stroke-width="3" stroke-miterlimit="8" fill="#F9F7F7" fill-rule="evenodd"/><text font-family="Cambria Math,Cambria Math_MSFontService,sans-serif" font-weight="400" font-size="27" transform="translate(809.311 477)">No infection</text><path d="M782.5 524.667C782.5 520.156 786.156 516.5 790.667 516.5L967.333 516.5C971.844 516.5 975.5 520.156 975.5 524.667L975.5 557.333C975.5 561.844 971.844 565.5 967.333 565.5L790.667 565.5C786.156 565.5 782.5 561.844 782.5 557.333Z" stroke="#042433" stroke-width="3" stroke-miterlimit="8" fill="#DBE2EF" fill-rule="evenodd"/><text font-family="Cambria Math,Cambria Math_MSFontService,sans-serif" font-weight="400" font-size="27" transform="translate(827.727 550)">Infection</text><path d="M1040.5 338.667C1040.5 334.156 1044.16 330.5 1048.67 330.5L1225.33 330.5C1229.84 330.5 1233.5 334.156 1233.5 338.667L1233.5 371.333C1233.5 375.844 1229.84 379.5 1225.33 379.5L1048.67 379.5C1044.16 379.5 1040.5 375.844 1040.5 371.333Z" stroke="#042433" stroke-width="3" stroke-miterlimit="8" fill="#F9F7F7" fill-rule="evenodd"/><text font-family="Cambria Math,Cambria Math_MSFontService,sans-serif" font-weight="400" font-size="27" transform="translate(1076.96 365)">Recovered</text><path d="M1040.5 412.667C1040.5 408.156 1044.16 404.5 1048.67 404.5L1225.33 404.5C1229.84 404.5 1233.5 408.156 1233.5 412.667L1233.5 445.333C1233.5 449.844 1229.84 453.5 1225.33 453.5L1048.67 453.5C1044.16 453.5 1040.5 449.844 1040.5 445.333Z" stroke="#042433" stroke-width="3" stroke-miterlimit="8" fill="#F9F7F7" fill-rule="evenodd"/><text font-family="Cambria Math,Cambria Math_MSFontService,sans-serif" font-weight="400" font-size="27" transform="translate(1102.82 438)">Death</text><path d="M782.5 40.6669C782.5 36.1565 786.156 32.5001 790.667 32.5001L967.333 32.5001C971.844 32.5001 975.5 36.1565 975.5 40.6669L975.5 73.3332C975.5 77.8436 971.844 81.5 967.333 81.5L790.667 81.5C786.156 81.5 782.5 77.8436 782.5 73.3332Z" stroke="#042433" stroke-width="3" stroke-miterlimit="8" fill="#F9F7F7" fill-rule="evenodd"/><text font-family="Cambria Math,Cambria Math_MSFontService,sans-serif" font-weight="400" font-size="27" transform="translate(818.874 67)">Recovered</text><path d="M782.5 114.667C782.5 110.156 786.156 106.5 790.667 106.5L967.333 106.5C971.844 106.5 975.5 110.156 975.5 114.667L975.5 147.333C975.5 151.844 971.844 155.5 967.333 155.5L790.667 155.5C786.156 155.5 782.5 151.844 782.5 147.333Z" stroke="#042433" stroke-width="3" stroke-miterlimit="8" fill="#F9F7F7" fill-rule="evenodd"/><text font-family="Cambria Math,Cambria Math_MSFontService,sans-serif" font-weight="400" font-size="27" transform="translate(844.731 141)">Death</text><path d="M42.5001 581.5C42.5001 577.082 46.0818 573.5 50.5002 573.5L82.4999 573.5C86.9183 573.5 90.5 577.082 90.5 581.5L90.5 615.5C90.5 619.918 86.9183 623.5 82.4999 623.5L50.5002 623.5C46.0818 623.5 42.5001 619.918 42.5001 615.5Z" stroke="#042433" stroke-width="3" stroke-miterlimit="8" fill="#DBE2EF" fill-rule="evenodd"/><path d="M42.5001 644.5C42.5001 640.082 46.0819 636.5 50.5002 636.5L82.4999 636.5C86.9183 636.5 90.5001 640.082 90.5001 644.5L90.5001 677.5C90.5001 681.918 86.9183 685.5 82.4999 685.5L50.5002 685.5C46.0819 685.5 42.5001 681.918 42.5001 677.5Z" stroke="#042433" stroke-width="3" stroke-miterlimit="8" fill="#F9F7F7" fill-rule="evenodd"/><path d="M42.5001 519.5C42.5001 515.082 46.0819 511.5 50.5002 511.5L82.4999 511.5C86.9183 511.5 90.5001 515.082 90.5001 519.5L90.5001 552.5C90.5001 556.918 86.9183 560.5 82.4999 560.5L50.5002 560.5C46.0819 560.5 42.5001 556.918 42.5001 552.5Z" stroke="#042433" stroke-width="3" stroke-miterlimit="8" fill="#3F72AF" fill-rule="evenodd"/><text font-family="Cambria Math,Cambria Math_MSFontService,sans-serif" font-weight="400" font-size="27" transform="translate(105.351 545)">Decision nodes</text><text font-family="Cambria Math,Cambria Math_MSFontService,sans-serif" font-weight="400" font-size="27" transform="translate(105.351 607)">Chance nodes</text><text font-family="Cambria Math,Cambria Math_MSFontService,sans-serif" font-weight="400" font-size="27" transform="translate(105.351 670)">Terminal nodes</text></g></svg>

<svg xmlns="http://www.w3.org/2000/svg" width="1280" height="720" overflow="hidden"><path fill="#fff" d="M0 0h1280v720H0z"/><path fill="#112d4e" fill-rule="evenodd" stroke="#042433" stroke-miterlimit="8" stroke-width="3" d="M42.5 275.667a8.167 8.167 0 0 1 8.167-8.167h176.666a8.166 8.166 0 0 1 8.167 8.167v32.666a8.166 8.166 0 0 1-8.167 8.167H50.667a8.167 8.167 0 0 1-8.167-8.167Z"/><text fill="#fff" font-family="Cambria Math,Cambria Math_MSFontService,sans-serif" font-size="27" font-weight="400" transform="translate(73.135 302)">Susceptible</text><path fill="#3f72af" fill-rule="evenodd" stroke="#042433" stroke-miterlimit="8" stroke-width="3" d="M289.5 148.667a8.166 8.166 0 0 1 8.167-8.167h175.666a8.166 8.166 0 0 1 8.167 8.167v32.666a8.166 8.166 0 0 1-8.167 8.167H297.667a8.166 8.166 0 0 1-8.167-8.167Z"/><text fill="#fff" font-family="Cambria Math,Cambria Math_MSFontService,sans-serif" font-size="27" font-weight="400" transform="translate(323.422 174)">No vaccine</text><path fill="#3f72af" fill-rule="evenodd" stroke="#042433" stroke-miterlimit="8" stroke-width="3" d="M289.5 403.667a8.166 8.166 0 0 1 8.167-8.167h175.666a8.166 8.166 0 0 1 8.167 8.167v32.666a8.166 8.166 0 0 1-8.167 8.167H297.667a8.166 8.166 0 0 1-8.167-8.167Z"/><text fill="#fff" font-family="Cambria Math,Cambria Math_MSFontService,sans-serif" font-size="27" font-weight="400" transform="translate(341.665 430)">Vaccine</text><path fill="#dbe2ef" fill-rule="evenodd" stroke="#042433" stroke-miterlimit="8" stroke-width="3" d="M530.5 76.834a8.334 8.334 0 0 1 8.334-8.334h176.333a8.333 8.333 0 0 1 8.333 8.334v33.332a8.333 8.333 0 0 1-8.333 8.334H538.834a8.334 8.334 0 0 1-8.334-8.334Z"/><text font-family="Cambria Math,Cambria Math_MSFontService,sans-serif" font-size="27" font-weight="400" transform="translate(575.549 103)">Infection</text><path fill="#f9f7f7" fill-rule="evenodd" stroke="#042433" stroke-miterlimit="8" stroke-width="3" d="M530.5 220.834a8.334 8.334 0 0 1 8.334-8.334h176.333a8.333 8.333 0 0 1 8.333 8.334v33.332a8.333 8.333 0 0 1-8.333 8.334H538.834a8.334 8.334 0 0 1-8.334-8.334Z"/><text font-family="Cambria Math,Cambria Math_MSFontService,sans-serif" font-size="27" font-weight="400" transform="translate(557.132 247)">No infection</text><path fill="#dbe2ef" fill-rule="evenodd" stroke="#042433" stroke-miterlimit="8" stroke-width="3" d="M530.5 338.667a8.166 8.166 0 0 1 8.167-8.167h176.666a8.166 8.166 0 0 1 8.167 8.167v32.666a8.166 8.166 0 0 1-8.167 8.167H538.667a8.166 8.166 0 0 1-8.167-8.167Z"/><text font-family="Cambria Math,Cambria Math_MSFontService,sans-serif" font-size="27" font-weight="400" transform="translate(564.699 364)">Vaccinated</text><path fill="#dbe2ef" fill-rule="evenodd" stroke="#042433" stroke-miterlimit="8" stroke-width="3" d="M530.5 482.667a8.166 8.166 0 0 1 8.167-8.167h176.666a8.166 8.166 0 0 1 8.167 8.167v32.666a8.166 8.166 0 0 1-8.167 8.167H538.667a8.166 8.166 0 0 1-8.167-8.167Z"/><text font-family="Cambria Math,Cambria Math_MSFontService,sans-serif" font-size="27" font-weight="400" transform="translate(541.955 508)">Not vaccinated</text><path d="m236.842 292.072 50.01-118.084-3.683-1.56-50.01 118.084Zm52.914-114.683L288.91 164l-10.205 8.71Z"/><path d="m236.843 291.224 50.032 118.86-3.687 1.552-50.031-118.86Zm52.942 115.465-.874 13.388-10.186-8.732Zm192.868-241.272 42.946-63.027-3.305-2.252-42.947 63.027Zm45.126-59.122L529.577 93l-11.715 6.538Z"/><path d="m482.663 162.889 43.021 64.373-3.326 2.223-43.021-64.374Zm45.235 60.488 1.679 13.311-11.656-6.643Zm-45.293 197.167 42.612-57.325-3.21-2.386-42.612 57.325Zm44.629-53.334 2.343-13.21-11.974 6.051Z"/><path d="m482.701 418.949 43.322 70.12-3.403 2.103-43.321-70.121Zm45.674 66.317 1.202 13.362-11.411-7.055Z"/><path fill="#f9f7f7" fill-rule="evenodd" stroke="#042433" stroke-miterlimit="8" stroke-width="3" d="M782.5 299.667a8.166 8.166 0 0 1 8.167-8.167h176.666a8.166 8.166 0 0 1 8.167 8.167v32.666a8.166 8.166 0 0 1-8.167 8.167H790.667a8.166 8.166 0 0 1-8.167-8.167Z"/><text font-family="Cambria Math,Cambria Math_MSFontService,sans-serif" font-size="27" font-weight="400" transform="translate(809.311 326)">No infection</text><path fill="#dbe2ef" fill-rule="evenodd" stroke="#042433" stroke-miterlimit="8" stroke-width="3" d="M782.5 373.667a8.166 8.166 0 0 1 8.167-8.167h176.666a8.166 8.166 0 0 1 8.167 8.167v32.666a8.166 8.166 0 0 1-8.167 8.167H790.667a8.166 8.166 0 0 1-8.167-8.167Z"/><text font-family="Cambria Math,Cambria Math_MSFontService,sans-serif" font-size="27" font-weight="400" transform="translate(827.727 399)">Infection</text><path fill="#f9f7f7" fill-rule="evenodd" stroke="#042433" stroke-miterlimit="8" stroke-width="3" d="M1040.5 489.667a8.17 8.17 0 0 1 8.17-8.167h176.66a8.17 8.17 0 0 1 8.17 8.167v32.666a8.17 8.17 0 0 1-8.17 8.167h-176.66a8.17 8.17 0 0 1-8.17-8.167Z"/><text font-family="Cambria Math,Cambria Math_MSFontService,sans-serif" font-size="27" font-weight="400" transform="translate(1076.96 515)">Recovered</text><path fill="#f9f7f7" fill-rule="evenodd" stroke="#042433" stroke-miterlimit="8" stroke-width="3" d="M1040.5 563.667a8.17 8.17 0 0 1 8.17-8.167h176.66a8.17 8.17 0 0 1 8.17 8.167v32.666a8.17 8.17 0 0 1-8.17 8.167h-176.66a8.17 8.17 0 0 1-8.17-8.167Z"/><text font-family="Cambria Math,Cambria Math_MSFontService,sans-serif" font-size="27" font-weight="400" transform="translate(1102.82 589)">Death</text><path d="M724.038 94.808 774.915 63.9l-2.077-3.418-50.876 30.906Zm51.244-26.45L782.422 57l-13.37 1.102Z"/><path d="m724.069 91.31 50.973 32.255-2.139 3.38-50.972-32.255Zm51.422 27.806 6.932 11.487-13.349-1.347Zm-51.399 237.263 51.043-33.246-2.183-3.351-51.044 33.245Zm51.55-28.802 6.78-11.577-13.33 1.521Z"/><path d="m724.015 352.277 50.806 29.923-2.03 3.446-50.806-29.923Zm51.113 25.461 7.295 11.26-13.385-.92Zm-51.186 122.765 50.602-27.028-1.884-3.528-50.602 27.028Zm50.723-22.557L782.423 467l-13.412.361Z"/><path d="m724.154 496.366 51.254 36.194-2.308 3.267-51.254-36.193Zm51.927 31.772 6.342 11.824-13.264-2.021ZM975.936 391.35l56.495-29.904-1.871-3.535-56.496 29.904Zm56.598-25.433 7.8-10.917-13.414.311Z"/><path d="m976.027 387.284 56.753 33.981-2.05 3.432-56.757-33.981Zm57.093 29.522 7.21 11.312-13.37-1.017Zm-57.18 124.748 56.507-30.089-1.88-3.53-56.507 30.089Zm56.621-25.618 7.772-10.936-13.412.344Z"/><path d="m976.023 538.282 56.747 33.794-2.05 3.437-56.743-33.795Zm57.067 29.334 7.24 11.296-13.38-.986Z"/><path fill="#f9f7f7" fill-rule="evenodd" stroke="#042433" stroke-miterlimit="8" stroke-width="3" d="M782.5 450.667a8.166 8.166 0 0 1 8.167-8.167h176.666a8.166 8.166 0 0 1 8.167 8.167v32.666a8.166 8.166 0 0 1-8.167 8.167H790.667a8.166 8.166 0 0 1-8.167-8.167Z"/><text font-family="Cambria Math,Cambria Math_MSFontService,sans-serif" font-size="27" font-weight="400" transform="translate(809.311 477)">No infection</text><path fill="#dbe2ef" fill-rule="evenodd" stroke="#042433" stroke-miterlimit="8" stroke-width="3" d="M782.5 524.667a8.166 8.166 0 0 1 8.167-8.167h176.666a8.166 8.166 0 0 1 8.167 8.167v32.666a8.166 8.166 0 0 1-8.167 8.167H790.667a8.166 8.166 0 0 1-8.167-8.167Z"/><text font-family="Cambria Math,Cambria Math_MSFontService,sans-serif" font-size="27" font-weight="400" transform="translate(827.727 550)">Infection</text><path fill="#f9f7f7" fill-rule="evenodd" stroke="#042433" stroke-miterlimit="8" stroke-width="3" d="M1040.5 338.667a8.17 8.17 0 0 1 8.17-8.167h176.66a8.17 8.17 0 0 1 8.17 8.167v32.666a8.17 8.17 0 0 1-8.17 8.167h-176.66a8.17 8.17 0 0 1-8.17-8.167Z"/><text font-family="Cambria Math,Cambria Math_MSFontService,sans-serif" font-size="27" font-weight="400" transform="translate(1076.96 365)">Recovered</text><path fill="#f9f7f7" fill-rule="evenodd" stroke="#042433" stroke-miterlimit="8" stroke-width="3" d="M1040.5 412.667a8.17 8.17 0 0 1 8.17-8.167h176.66a8.17 8.17 0 0 1 8.17 8.167v32.666a8.17 8.17 0 0 1-8.17 8.167h-176.66a8.17 8.17 0 0 1-8.17-8.167Z"/><text font-family="Cambria Math,Cambria Math_MSFontService,sans-serif" font-size="27" font-weight="400" transform="translate(1102.82 438)">Death</text><path fill="#f9f7f7" fill-rule="evenodd" stroke="#042433" stroke-miterlimit="8" stroke-width="3" d="M782.5 40.667a8.167 8.167 0 0 1 8.167-8.167h176.666a8.167 8.167 0 0 1 8.167 8.167v32.666a8.167 8.167 0 0 1-8.167 8.167H790.667a8.167 8.167 0 0 1-8.167-8.167Z"/><text font-family="Cambria Math,Cambria Math_MSFontService,sans-serif" font-size="27" font-weight="400" transform="translate(818.874 67)">Recovered</text><path fill="#f9f7f7" fill-rule="evenodd" stroke="#042433" stroke-miterlimit="8" stroke-width="3" d="M782.5 114.667a8.166 8.166 0 0 1 8.167-8.167h176.666a8.166 8.166 0 0 1 8.167 8.167v32.666a8.166 8.166 0 0 1-8.167 8.167H790.667a8.166 8.166 0 0 1-8.167-8.167Z"/><text font-family="Cambria Math,Cambria Math_MSFontService,sans-serif" font-size="27" font-weight="400" transform="translate(844.731 141)">Death</text><path fill="#dbe2ef" fill-rule="evenodd" stroke="#042433" stroke-miterlimit="8" stroke-width="3" d="M42.5 581.5a8 8 0 0 1 8-8h32a8 8 0 0 1 8 8v34a8 8 0 0 1-8 8h-32a8 8 0 0 1-8-8Z"/><path fill="#f9f7f7" fill-rule="evenodd" stroke="#042433" stroke-miterlimit="8" stroke-width="3" d="M42.5 644.5a8 8 0 0 1 8-8h32a8 8 0 0 1 8 8v33a8 8 0 0 1-8 8h-32a8 8 0 0 1-8-8Z"/><path fill="#3f72af" fill-rule="evenodd" stroke="#042433" stroke-miterlimit="8" stroke-width="3" d="M42.5 519.5a8 8 0 0 1 8-8h32a8 8 0 0 1 8 8v33a8 8 0 0 1-8 8h-32a8 8 0 0 1-8-8Z"/><text font-family="Cambria Math,Cambria Math_MSFontService,sans-serif" font-size="27" font-weight="400" transform="translate(105.351 545)">Decision nodes</text><text font-family="Cambria Math,Cambria Math_MSFontService,sans-serif" font-size="27" font-weight="400" transform="translate(105.351 607)">Chance nodes</text><text font-family="Cambria Math,Cambria Math_MSFontService,sans-serif" font-size="27" font-weight="400" transform="translate(105.351 670)">Terminal nodes</text></svg>
